docs/local/img/sprites/TikTok.svg

<svg width="32" height="32" viewBox="0 0 32 32" fill="none" xmlns="http://www.w3.org/2000/svg">
<path d="M22.902 11.5514C24.9598 13.0276 27.4807 13.8962 30.2034 13.8962V8.63823C29.6881 8.63834 29.1742 8.58442 28.67 8.47723V12.616C25.9476 12.616 23.427 11.7474 21.3686 10.2713V21.0012C21.3686 26.3689 17.0328 30.72 11.6845 30.72C9.68892 30.72 7.83412 30.1145 6.29333 29.0761C8.05188 30.8806 10.5043 32.0001 13.2175 32.0001C18.5661 32.0001 22.9022 27.649 22.9022 22.2811V11.5514H22.902ZM24.7935 6.24674C23.7419 5.09372 23.0514 3.60365 22.902 1.95631V1.28003H21.4489C21.8147 3.37379 23.0622 5.16257 24.7935 6.24674ZM9.67612 24.9572C9.08855 24.184 8.77103 23.2382 8.77245 22.2657C8.77245 19.8108 10.7557 17.8202 13.2024 17.8202C13.6584 17.8201 14.1116 17.8902 14.5462 18.0286V12.6531C14.0384 12.5833 13.5258 12.5536 13.0135 12.5645V16.7485C12.5786 16.6101 12.1252 16.5398 11.6691 16.5403C9.22232 16.5403 7.23922 18.5306 7.23922 20.9859C7.23922 22.7219 8.2305 24.225 9.67612 24.9572Z" fill="#FF004F"/>
<path d="M21.3686 10.2712C23.427 11.7473 25.9475 12.6159 28.67 12.6159V8.47712C27.1503 8.15227 25.805 7.35529 24.7935 6.24674C23.0621 5.16246 21.8147 3.37368 21.4489 1.28003H17.6321V22.2809C17.6235 24.7292 15.6437 26.7116 13.2022 26.7116C11.7634 26.7116 10.4853 26.0233 9.67577 24.9572C8.23025 24.225 7.23897 22.7218 7.23897 20.986C7.23897 18.5309 9.22207 16.5404 11.6688 16.5404C12.1376 16.5404 12.5894 16.6136 13.0133 16.7486V12.5646C7.75895 12.6735 3.5332 16.9821 3.5332 22.281C3.5332 24.9262 4.58551 27.3242 6.29342 29.0763C7.8342 30.1145 9.689 30.7201 11.6846 30.7201C17.0329 30.7201 21.3687 26.3688 21.3687 21.0012V10.2712H21.3686Z" fill="black"/>
<path d="M28.6701 8.47707V7.35798C27.2997 7.36007 25.9562 6.97492 24.7935 6.24658C25.8228 7.37742 27.1781 8.15716 28.6701 8.47707ZM21.4489 1.27998C21.414 1.07988 21.3872 0.878468 21.3686 0.676285V0H16.0987V21.0011C16.0903 23.449 14.1106 25.4314 11.6688 25.4314C10.952 25.4314 10.2752 25.2606 9.6758 24.9572C10.4853 26.0233 11.7635 26.7114 13.2022 26.7114C15.6435 26.7114 17.6236 24.7292 17.6321 22.281V1.27998H21.4489ZM13.0135 12.5645V11.3732C12.5732 11.3128 12.1292 11.2825 11.6847 11.2827C6.33589 11.2826 2 15.6339 2 21.0011C2 24.366 3.70408 27.3316 6.29356 29.076C4.58565 27.324 3.53334 24.9259 3.53334 22.2808C3.53334 16.982 7.75898 12.6735 13.0135 12.5645Z" fill="#00F2EA"/>
</svg>

<svg width="32" height="32" viewBox="0 0 32 32" fill="none" xmlns="http://www.w3.org/2000/svg"><path d="M22.902 11.551a12.483 12.483 0 007.301 2.345V8.638a7.45 7.45 0 01-1.533-.16v4.138c-2.722 0-5.243-.869-7.301-2.345v10.73c0 5.368-4.336 9.719-9.684 9.719a9.613 9.613 0 01-5.392-1.644A9.638 9.638 0 0013.217 32c5.35 0 9.685-4.351 9.685-9.719v-10.73zm1.892-5.304a7.341 7.341 0 01-1.892-4.29V1.28h-1.453a7.362 7.362 0 003.345 4.967zM9.676 24.957a4.438 4.438 0 01-.904-2.691 4.438 4.438 0 015.774-4.237v-5.376c-.508-.07-1.02-.1-1.532-.088v4.184a4.438 4.438 0 00-5.774 4.237c0 1.736.99 3.239 2.436 3.971z" fill="#FF004F"/><path d="M21.369 10.271a12.485 12.485 0 007.301 2.345V8.477a7.323 7.323 0 01-3.877-2.23A7.362 7.362 0 0121.45 1.28h-3.817v21c-.009 2.45-1.988 4.432-4.43 4.432a4.418 4.418 0 01-3.526-1.755 4.447 4.447 0 01-2.437-3.971 4.438 4.438 0 015.774-4.237v-4.184c-5.254.109-9.48 4.417-9.48 9.716a9.704 9.704 0 002.76 6.795 9.615 9.615 0 005.392 1.644c5.348 0 9.684-4.351 9.684-9.719v-10.73z" fill="#000"/><path d="M28.67 8.477V7.358a7.281 7.281 0 01-3.877-1.111 7.317 7.317 0 003.877 2.23zM21.45 1.28a7.527 7.527 0 01-.08-.604V0H16.1v21.001a4.438 4.438 0 01-4.43 4.43 4.4 4.4 0 01-1.993-.474 4.418 4.418 0 003.526 1.754 4.438 4.438 0 004.43-4.43V1.28h3.817zm-8.436 11.285v-1.192c-.44-.06-.884-.09-1.328-.09C6.335 11.283 2 15.633 2 21a9.718 9.718 0 004.294 8.075 9.703 9.703 0 01-2.76-6.795c0-5.299 4.225-9.607 9.48-9.716z" fill="#00F2EA"/></svg>
